X: 26
T:Mazurka
R:Mazurka
C:Elsener
O:France
A:Centre
S:80 airs  danser du centre France - La Chavanne - 1991
S:48
Z:Transcrit et/ou corrig par Michel BELLON - 2005-05-20
Z:Pour toute observation mailto:galouvielle@free.fr
M:3/4
L:1/8
K:C
Gc | e2defd | f2e2dc | B2Bc dB | e2c2Gc | e2de fd | f2e2dc | B2Bc dB | c4 ::
de | f2fedc | B2BA GA | B2Bc df | e2c2de | f2fe dc | B2 BA GA | B2 Bc dB | c4 :|
%%footer $D   Galouvielle-MBe 2005 \nPolka France
